Icons/com_newsblur.svg

<svg viewBox="0 0 48 48" xmlns:xlink="http://www.w3.org/1999/xlink">
 <defs>
  <linearGradient id="0">
   <stop stop-opacity="0"/>
   <stop offset="1"/>
  </linearGradient>
  <linearGradient xlink:href="#6" id="1" gradientUnits="userSpaceOnUse" gradientTransform="translate(4e-7,-48)" y1="47" x2="0" y2="1"/>
  <clipPath id="2">
   <g transform="translate(0,-1004.3622)">
    <rect rx="4" y="1005.36" x="1" height="46" width="46" fill="#1890d0"/>
   </g>
  </clipPath>
  <clipPath id="3">
   <g transform="translate(0,-1004.3622)">
    <rect rx="4" y="1005.36" x="1" height="46" width="46" fill="#1890d0"/>
   </g>
  </clipPath>
  <clipPath id="4">
   <path d="M 9 9 L 39 9 L 39 39 L 9 39 Z M 9 9 "/>
  </clipPath>
  <clipPath id="5">
   <path d="M 24 9 L 20.839844 16.371094 L 13.394531 13.394531 L 16.375 20.839844 L 9 24 L 16.375 27.160156 L 13.394531 34.605469 L 20.839844 31.625 L 24 39 L 27.160156 31.625 L 34.605469 34.605469 L 31.628906 27.160156 L 39 24 L 31.628906 20.839844 L 34.605469 13.394531 L 27.160156 16.371094 Z M 20.894531 16.5 L 27.105469 16.5 L 31.5 20.894531 L 31.5 27.105469 L 27.105469 31.5 L 20.894531 31.5 L 16.5 27.105469 L 16.5 20.894531 Z M 20.894531 16.5 "/>
  </clipPath>
  <clipPath id="6">
   <path d="M 9 9 L 39 9 L 39 39 L 9 39 Z M 9 9 "/>
  </clipPath>
  <clipPath id="7">
   <path d="M 24 9 L 20.839844 16.371094 L 13.394531 13.394531 L 16.375 20.839844 L 9 24 L 16.375 27.160156 L 13.394531 34.605469 L 20.839844 31.625 L 24 39 L 27.160156 31.625 L 34.605469 34.605469 L 31.628906 27.160156 L 39 24 L 31.628906 20.839844 L 34.605469 13.394531 L 27.160156 16.371094 Z M 20.894531 16.5 L 27.105469 16.5 L 31.5 20.894531 L 31.5 27.105469 L 27.105469 31.5 L 20.894531 31.5 L 16.5 27.105469 L 16.5 20.894531 Z M 20.894531 16.5 "/>
  </clipPath>
 </defs>
 <g>
  <g transform="translate(0,-1004.3622)">
   <path d="m 5,1006.3622 c -2.216,0 -4,1.784 -4,4 l 0,37.25 c 0,2.216 1.784,4 4,4 l 38,0 c 2.216,0 4,-1.784 4,-4 l 0,-37.25 c 0,-2.216 -1.784,-4 -4,-4 l -38,0 z m -4,41.5 0,0.5 c 0,2.216 1.784,4 4,4 l 38,0 c 2.216,0 4,-1.784 4,-4 l 0,-0.5 c 0,2.216 -1.784,4 -4,4 l -38,0 c -2.216,0 -4,-1.784 -4,-4 z" opacity="0.02"/>
   <path d="m 1,1047.6122 0,0.25 c 0,2.216 1.784,4 4,4 l 38,0 c 2.216,0 4,-1.784 4,-4 l 0,-0.25 c 0,2.216 -1.784,4 -4,4 l -38,0 c -2.216,0 -4,-1.784 -4,-4 z" opacity="0.05"/>
   <rect width="46" height="46" x="1" y="1005.61" rx="4" opacity="0.1"/>
  </g>
 </g>
 <g>
  <g transform="translate(0,-1004.3622)">
   <rect rx="4" y="1005.36" x="1" height="46" width="46" fill="#e17527"/>
  </g>
 </g>
 <g>
  <rect transform="scale(1,-1)" width="46" height="46" x="1" y="-46.998" rx="4" opacity="0.1" fill="url(#7)"/>
 </g>
 <g>
  <g clip-path="url(#2)">
   <g opacity="0.1">
    <g>
     <path d="M 31.5 24.132812 C 31.5 28.273438 28.144531 31.632812 24 31.632812 C 19.859375 31.632812 16.5 28.273438 16.5 24.132812 C 16.5 19.992188 19.859375 16.632812 24 16.632812 C 28.144531 16.632812 31.5 19.992188 31.5 24.132812 Z M 31.5 24.132812 "/>
     <g clip-path="url(#6)">
      <g clip-path="url(#7)">
       <path d="M 24 9 C 15.726562 9 9 15.726562 9 24 C 9 32.273438 15.726562 39 24 39 C 32.273438 39 39 32.273438 39 24 C 39 15.726562 32.273438 9 24 9 Z M 24 10.875 C 31.261719 10.875 37.125 16.738281 37.125 24 C 37.125 31.257812 31.261719 37.125 24 37.125 C 16.742188 37.125 10.875 31.257812 10.875 24 C 10.875 16.738281 16.742188 10.875 24 10.875 Z M 24 11.675781 C 17.203125 11.675781 11.679688 17.203125 11.679688 24 C 11.679688 30.796875 17.203125 36.320312 24 36.320312 C 30.796875 36.320312 36.324219 30.796875 36.324219 24 C 36.324219 17.203125 30.796875 11.675781 24 11.675781 Z M 24 13.015625 C 30.074219 13.015625 34.984375 17.925781 34.984375 24 C 34.984375 30.074219 30.074219 34.980469 24 34.980469 C 17.925781 34.980469 13.019531 30.074219 13.019531 24 C 13.019531 17.925781 17.925781 13.015625 24 13.015625 Z M 24 14.222656 C 18.535156 14.222656 14.089844 18.667969 14.089844 24.132812 C 14.089844 29.597656 18.535156 34.042969 24 34.042969 C 29.46875 34.042969 33.914062 29.597656 33.914062 24.132812 C 33.914062 18.667969 29.46875 14.222656 24 14.222656 Z M 24 15.5625 C 28.742188 15.5625 32.574219 19.390625 32.574219 24.132812 C 32.574219 28.875 28.742188 32.703125 24 32.703125 C 19.257812 32.703125 15.429688 28.875 15.429688 24.132812 C 15.429688 19.390625 19.257812 15.5625 24 15.5625 Z M 24 15.5625 "/>
      </g>
     </g>
    </g>
   </g>
  </g>
 </g>
 <g>
  <g clip-path="url(#3)">
   <g transform="translate(0,-1)">
    <g>
     <path d="M 31.5 24.132812 C 31.5 28.273438 28.144531 31.632812 24 31.632812 C 19.859375 31.632812 16.5 28.273438 16.5 24.132812 C 16.5 19.992188 19.859375 16.632812 24 16.632812 C 28.144531 16.632812 31.5 19.992188 31.5 24.132812 Z M 31.5 24.132812 " fill="#fbe569"/>
     <g clip-path="url(#6)">
      <g clip-path="url(#7)">
       <path d="M 24 9 C 15.726562 9 9 15.726562 9 24 C 9 32.273438 15.726562 39 24 39 C 32.273438 39 39 32.273438 39 24 C 39 15.726562 32.273438 9 24 9 Z M 24 10.875 C 31.261719 10.875 37.125 16.738281 37.125 24 C 37.125 31.257812 31.261719 37.125 24 37.125 C 16.742188 37.125 10.875 31.257812 10.875 24 C 10.875 16.738281 16.742188 10.875 24 10.875 Z M 24 11.675781 C 17.203125 11.675781 11.679688 17.203125 11.679688 24 C 11.679688 30.796875 17.203125 36.320312 24 36.320312 C 30.796875 36.320312 36.324219 30.796875 36.324219 24 C 36.324219 17.203125 30.796875 11.675781 24 11.675781 Z M 24 13.015625 C 30.074219 13.015625 34.984375 17.925781 34.984375 24 C 34.984375 30.074219 30.074219 34.980469 24 34.980469 C 17.925781 34.980469 13.019531 30.074219 13.019531 24 C 13.019531 17.925781 17.925781 13.015625 24 13.015625 Z M 24 14.222656 C 18.535156 14.222656 14.089844 18.667969 14.089844 24.132812 C 14.089844 29.597656 18.535156 34.042969 24 34.042969 C 29.46875 34.042969 33.914062 29.597656 33.914062 24.132812 C 33.914062 18.667969 29.46875 14.222656 24 14.222656 Z M 24 15.5625 C 28.742188 15.5625 32.574219 19.390625 32.574219 24.132812 C 32.574219 28.875 28.742188 32.703125 24 32.703125 C 19.257812 32.703125 15.429688 28.875 15.429688 24.132812 C 15.429688 19.390625 19.257812 15.5625 24 15.5625 Z M 24 15.5625 " fill="#fbe569"/>
      </g>
     </g>
    </g>
   </g>
  </g>
 </g>
 <g>
  <g transform="translate(0,-1004.3622)">
   <path d="m 1,1043.3622 0,4 c 0,2.216 1.784,4 4,4 l 38,0 c 2.216,0 4,-1.784 4,-4 l 0,-4 c 0,2.216 -1.784,4 -4,4 l -38,0 c -2.216,0 -4,-1.784 -4,-4 z" opacity="0.1"/>
  </g>
 </g>
</svg>

<svg viewBox="0 0 48 48"><defs><linearGradient id="linearGradient3764" x1="1" x2="47" gradientUnits="userSpaceOnUse" gradientTransform="translate(-48.000001,0.00221467)"><stop stop-color="#d66c1e" stop-opacity="1"/><stop offset="1" stop-color="#e17527" stop-opacity="1"/></linearGradient><clipPath id="clipPath-063036126"><g transform="translate(0,-1004.3622)"><rect rx="4" y="1005.36" x="1" height="46" width="46" fill="#1890d0"/></g></clipPath><clipPath id="clipPath-076322490"><g transform="translate(0,-1004.3622)"><rect rx="4" y="1005.36" x="1" height="46" width="46" fill="#1890d0"/></g></clipPath><clipPath id="0"><path d="m 9 9 l 30 0 l 0 30 l -30 0 m 0 -30"/></clipPath><clipPath id="1"><path d="m 24 9 l -3.16 7.371 l -7.445 -2.977 l 2.98 7.445 l -7.375 3.16 l 7.375 3.16 l -2.98 7.445 l 7.445 -2.98 l 3.16 7.375 l 3.16 -7.375 l 7.445 2.98 l -2.977 -7.445 l 7.371 -3.16 l -7.371 -3.16 l 2.977 -7.445 l -7.445 2.977 m -6.266 0.129 l 6.211 0 l 4.395 4.395 l 0 6.211 l -4.395 4.395 l -6.211 0 l -4.395 -4.395 l 0 -6.211 m 4.395 -4.395"/></clipPath><clipPath id="0"><path d="m 9 9 l 30 0 l 0 30 l -30 0 m 0 -30"/></clipPath><clipPath id="1"><path d="m 24 9 l -3.16 7.371 l -7.445 -2.977 l 2.98 7.445 l -7.375 3.16 l 7.375 3.16 l -2.98 7.445 l 7.445 -2.98 l 3.16 7.375 l 3.16 -7.375 l 7.445 2.98 l -2.977 -7.445 l 7.371 -3.16 l -7.371 -3.16 l 2.977 -7.445 l -7.445 2.977 m -6.266 0.129 l 6.211 0 l 4.395 4.395 l 0 6.211 l -4.395 4.395 l -6.211 0 l -4.395 -4.395 l 0 -6.211 m 4.395 -4.395"/></clipPath></defs><g><path d="m 1 43 l 0 0.25 c 0 2.216 1.784 4 4 4 l 38 0 c 2.216 0 4 -1.784 4 -4 l 0 -0.25 c 0 2.216 -1.784 4 -4 4 l -38 0 c -2.216 0 -4 -1.784 -4 -4 z m 0 0.5 l 0 0.5 c 0 2.216 1.784 4 4 4 l 38 0 c 2.216 0 4 -1.784 4 -4 l 0 -0.5 c 0 2.216 -1.784 4 -4 4 l -38 0 c -2.216 0 -4 -1.784 -4 -4 z" opacity="0.02"/><path d="m 1 43.25 l 0 0.25 c 0 2.216 1.784 4 4 4 l 38 0 c 2.216 0 4 -1.784 4 -4 l 0 -0.25 c 0 2.216 -1.784 4 -4 4 l -38 0 c -2.216 0 -4 -1.784 -4 -4 z" opacity="0.05"/><path d="m 1 43 l 0 0.25 c 0 2.216 1.784 4 4 4 l 38 0 c 2.216 0 4 -1.784 4 -4 l 0 -0.25 c 0 2.216 -1.784 4 -4 4 l -38 0 c -2.216 0 -4 -1.784 -4 -4 z" opacity="0.1"/></g><g><rect width="46" height="46" x="-47" y="1" rx="4" transform="matrix(0,-1,1,0,0,0)" fill="url(#linearGradient3764)" fill-opacity="1"/></g><g><g clip-path="url(#clipPath-063036126)"><g opacity="0.1"><!-- color: #e17527 --><g><path d="m 31.5 24.13 c 0 4.141 -3.355 7.5 -7.5 7.5 c -4.141 0 -7.5 -3.359 -7.5 -7.5 c 0 -4.141 3.359 -7.5 7.5 -7.5 c 4.145 0 7.5 3.359 7.5 7.5 m 0 0" fill="#000"/><g clip-path="url(#0)"><g clip-path="url(#1)"><path d="m 24 9 c -8.273 0 -15 6.727 -15 15 c 0 8.273 6.727 15 15 15 c 8.273 0 15 -6.727 15 -15 c 0 -8.273 -6.727 -15 -15 -15 m 0 1.875 c 7.262 0 13.13 5.863 13.13 13.13 c 0 7.258 -5.863 13.13 -13.12 13.13 c -7.258 0 -13.12 -5.867 -13.12 -13.12 c 0 -7.262 5.867 -13.12 13.13 -13.12 m 0 0.801 c -6.797 0 -12.32 5.527 -12.32 12.324 c 0 6.797 5.523 12.32 12.32 12.32 c 6.797 0 12.324 -5.523 12.324 -12.32 c 0 -6.797 -5.527 -12.324 -12.324 -12.324 m 0 1.34 c 6.074 0 10.984 4.91 10.984 10.984 c 0 6.074 -4.91 10.98 -10.984 10.98 c -6.074 0 -10.98 -4.906 -10.98 -10.98 c 0 -6.074 4.906 -10.984 10.98 -10.984 m 0 1.207 c -5.465 0 -9.91 4.445 -9.91 9.91 c 0 5.465 4.445 9.91 9.91 9.91 c 5.469 0 9.914 -4.445 9.914 -9.91 c 0 -5.465 -4.445 -9.91 -9.914 -9.91 m 0 1.34 c 4.742 0 8.574 3.828 8.574 8.57 c 0 4.742 -3.832 8.57 -8.574 8.57 c -4.742 0 -8.57 -3.828 -8.57 -8.57 c 0 -4.742 3.828 -8.57 8.57 -8.57 m 0 0" fill="#000"/></g></g></g></g></g></g><g><g clip-path="url(#clipPath-076322490)"><g transform="translate(0,-1)"><!-- color: #e17527 --><g><path d="m 31.5 24.13 c 0 4.141 -3.355 7.5 -7.5 7.5 c -4.141 0 -7.5 -3.359 -7.5 -7.5 c 0 -4.141 3.359 -7.5 7.5 -7.5 c 4.145 0 7.5 3.359 7.5 7.5 m 0 0" fill="#fbe569"/><g clip-path="url(#0)"><g clip-path="url(#1)"><path d="m 24 9 c -8.273 0 -15 6.727 -15 15 c 0 8.273 6.727 15 15 15 c 8.273 0 15 -6.727 15 -15 c 0 -8.273 -6.727 -15 -15 -15 m 0 1.875 c 7.262 0 13.13 5.863 13.13 13.13 c 0 7.258 -5.863 13.13 -13.12 13.13 c -7.258 0 -13.12 -5.867 -13.12 -13.12 c 0 -7.262 5.867 -13.12 13.13 -13.12 m 0 0.801 c -6.797 0 -12.32 5.527 -12.32 12.324 c 0 6.797 5.523 12.32 12.32 12.32 c 6.797 0 12.324 -5.523 12.324 -12.32 c 0 -6.797 -5.527 -12.324 -12.324 -12.324 m 0 1.34 c 6.074 0 10.984 4.91 10.984 10.984 c 0 6.074 -4.91 10.98 -10.984 10.98 c -6.074 0 -10.98 -4.906 -10.98 -10.98 c 0 -6.074 4.906 -10.984 10.98 -10.984 m 0 1.207 c -5.465 0 -9.91 4.445 -9.91 9.91 c 0 5.465 4.445 9.91 9.91 9.91 c 5.469 0 9.914 -4.445 9.914 -9.91 c 0 -5.465 -4.445 -9.91 -9.914 -9.91 m 0 1.34 c 4.742 0 8.574 3.828 8.574 8.57 c 0 4.742 -3.832 8.57 -8.574 8.57 c -4.742 0 -8.57 -3.828 -8.57 -8.57 c 0 -4.742 3.828 -8.57 8.57 -8.57 m 0 0" fill="#fbe569"/></g></g></g></g></g></g><g><g transform="translate(0,-1004.3622)"><path d="m 1 1043.36 0 4 c 0 2.216 1.784 4 4 4 l 38 0 c 2.216 0 4 -1.784 4 -4 l 0 -4 c 0 2.216 -1.784 4 -4 4 l -38 0 c -2.216 0 -4 -1.784 -4 -4 z" opacity="0.1"/></g></g></svg>
